X:1
T:The Escape of Old John Webb
M:4/4
L:1/4
K:F
 c/2c/2| c A A c| B G G B| A F E F| G C| C2-| C3 C| F A G B| A c B G|\
 A F FA/2-G/2| F E F2-| F3 c/2c/2| c A A c| B B/2A/2 G B| A F E G|\
 G C C2-| C3 C| F/2F/2 A G B| A/2A/2 c B G| A F/2F/2 FA/2-G/2| F E F2-|\
 F3 c| c/2c/2 A A c| B/2B/2 G G B| A/2A/2 F E F| G C| C2-| C3 C| FG/2-A/2 G A/2B/2|\
 A c B3/2 G/2| A F F|A/2-G/2| F E F2-| F3||
